assets/img/covers/webpack-cover.svg

<?xml version="1.0" encoding="UTF-8" standalone="no"?>
<!DOCTYPE svg PUBLIC "-//W3C//DTD SVG 1.1//EN" "http://www.w3.org/Graphics/SVG/1.1/DTD/svg11.dtd">
<svg xmlns="http://www.w3.org/2000/svg" xmlns:dc="http://purl.org/dc/elements/1.1/" version="1.1" xmlns:xl="http://www.w3.org/1999/xlink" viewBox="0 0 612.2835 790.8661" width="612.2835" height="790.8661">
  <defs>
    <font-face font-family="Helvetica Neue" font-size="52" panose-1="2 11 6 4 2 2 2 2 2 4" units-per-em="1000" underline-position="-75" underline-thickness="50" slope="0" x-height="517" cap-height="714" ascent="975.0061" descent="-216.99524" font-weight="500">
      <font-face-src>
        <font-face-name name="HelveticaNeue-Medium"/>
      </font-face-src>
    </font-face>
    <font-face font-family="Proxima Nova" font-size="24" panose-1="2 0 5 6 3 0 0 2 0 4" units-per-em="1000" underline-position="-145" underline-thickness="39" slope="0" x-height="483" cap-height="667" ascent="920.0019" descent="-298.0006" font-weight="300">
      <font-face-src>
        <font-face-name name="ProximaNova-Light"/>
      </font-face-src>
    </font-face>
    <font-face font-family="Proxima Nova" font-size="32" panose-1="2 0 5 6 3 0 0 2 0 4" units-per-em="1000" underline-position="-145" underline-thickness="39" slope="0" x-height="483" cap-height="667" ascent="920.0019" descent="-298.0006" font-weight="300">
      <font-face-src>
        <font-face-name name="ProximaNova-Light"/>
      </font-face-src>
    </font-face>
    <font-face font-family="Proxima Nova" font-size="32" panose-1="2 0 5 6 3 0 0 2 0 4" units-per-em="1000" underline-position="-96" underline-thickness="88" slope="0" x-height="483" cap-height="667" ascent="920.0019" descent="-298.0006" font-weight="700">
      <font-face-src>
        <font-face-name name="ProximaNova-Bold"/>
      </font-face-src>
    </font-face>
  </defs>
  <metadata> Produced by OmniGraffle 7.17.5\n2020-10-29 15:56:46 +0000</metadata>
  <g id="Cover" stroke-dasharray="none" fill="none" fill-opacity="1" stroke="none" stroke-opacity="1">
    <title>Cover</title>
    <rect fill="white" x="0" y="0" width="612.2835" height="790.8661"/>
    <g id="Cover_Full_cover">
      <title>Full cover</title>
      <g id="Group_3">
        <g id="Graphic_28">
          <text transform="translate(171.27973 115.55118)" fill="#293131">
            <tspan font-family="Helvetica Neue" font-size="52" font-weight="500" fill="#293131" x="0" y="51">Webpack 5</tspan>
          </text>
        </g>
        <g id="Graphic_27">
          <text transform="translate(136.28173 185.59055)" fill="#7e8e97">
            <tspan font-family="Proxima Nova" font-size="24" font-weight="300" fill="#7e8e97" x="5684342e-19" y="22">FROM APPRENTICE TO MASTER</tspan>
          </text>
        </g>
        <g id="Graphic_26">
          <text transform="translate(180.42708 685.31496)" fill="black">
            <tspan font-family="Proxima Nova" font-size="32" font-weight="300" fill="black" x="0" y="29">Juho Vepsäläinen</tspan>
          </text>
        </g>
        <g id="Graphic_25">
          <text transform="translate(221.78973 58.85827)" fill="#283131">
            <tspan font-family="Proxima Nova" font-size="32" font-weight="700" fill="#283131" x="7673862e-19" y="29">SURVIVE</tspan>
            <tspan font-family="Proxima Nova" font-size="32" font-weight="700" fill="#00c1cf" y="29">JS</tspan>
          </text>
        </g>
        <g id="Graphic_24">
          <path d="M 307.29567 306.14173 C 238.40873 306.14173 182.36614 362.09196 182.36614 430.86507 C 182.36614 499.63817 238.40873 555.59055 307.29567 555.59055 C 376.1826 555.59055 432.2252 499.63817 432.2252 430.86507 C 432.2252 362.09196 376.1826 306.14173 307.29567 306.14173 M 307.29567 316.67066 C 370.3339 316.67066 421.6791 367.93206 421.6791 430.86507 C 421.6791 493.8002 370.3339 545.0616 307.29567 545.0616 C 244.25742 545.0616 192.91225 493.8002 192.91225 430.86507 C 192.91225 367.93206 244.25742 316.67066 307.29567 316.67066" fill="#3c4244"/>
        </g>
        <g id="Graphic_23">
          <path d="M 203.8888 453.18824 C 222.5131 444.0447 243.15212 438.7244 263.81906 437.83946 C 264.13695 440.0582 264.77057 442.5949 265.40635 444.81364 C 245.82194 452.7479 228.03316 464.7589 213.13544 479.89503 C 208.9213 471.5634 205.7682 462.60886 203.8888 453.18824 Z" fill="#3c4244"/>
        </g>
        <g id="Graphic_22">
          <path d="M 214.82282 381.845 C 235.10743 386.87318 254.20857 395.95014 270.80527 408.6742 C 269.53372 410.5751 268.26432 412.79384 267.31066 415.01475 C 247.05826 408.7494 225.78132 406.36093 204.6311 408.4594 C 206.83269 399.04094 210.2779 390.10145 214.82282 381.845 Z" fill="#3c4244"/>
        </g>
        <g id="Graphic_21">
          <path d="M 202.59384 444.8961 C 202.11486 440.82373 201.83993 436.68905 201.83993 432.4878 C 201.83993 427.1052 202.25018 421.81925 203.02986 416.65574 C 223.7913 414.1384 244.9673 416.4259 264.7708 422.62256 C 264.7708 422.9383 264.4529 423.57407 264.4529 423.8898 C 264.13716 426.1086 263.81927 428.0116 263.81927 429.91463 C 242.5187 430.7652 221.74222 435.7053 202.59384 444.8961 Z" fill="#3c4244"/>
        </g>
        <g id="Graphic_20">
          <path d="M 237.55173 353.5361 C 254.90233 365.01652 269.73777 380.17414 280.9669 397.5763 C 279.06173 399.16144 277.15656 400.74658 275.56713 402.3317 C 258.79215 389.55825 239.4612 380.12044 219.18732 374.6369 C 224.35298 366.80786 230.53674 359.7177 237.55173 353.5361 Z" fill="#3d4244"/>
        </g>
        <g id="Graphic_19">
          <path d="M 308.55025 537.73776 C 302.6543 517.7603 300.87156 496.55423 303.8292 475.883 L 306.05226 475.883 C 307.95743 475.883 309.54472 475.883 311.13415 475.5651 C 315.43637 496.47906 324.4446 516.3298 336.91306 533.53436 C 327.8984 536.1612 318.3897 537.6218 308.55025 537.73776 Z" fill="#3c4244"/>
        </g>
        <g id="Graphic_18">
          <path d="M 345.0443 530.80096 C 332.6016 514.0346 323.55902 494.58763 319.0721 473.98083 C 321.29515 473.3472 323.5182 472.3957 325.74127 471.4442 C 337.226 489.5036 352.37074 505.19174 369.95117 517.1791 C 362.367 522.78076 353.9967 527.3751 345.0443 530.80096 Z" fill="#3c4244"/>
        </g>
        <g id="Graphic_17">
          <path d="M 300.05494 537.49505 C 290.41094 536.8421 281.1278 534.90256 272.37086 531.8375 C 273.68322 511.1341 279.2398 490.84086 288.90527 472.7127 C 291.12833 473.66423 293.66713 474.29786 295.8902 474.9315 C 293.0507 495.6328 294.30935 517.08586 300.05494 537.49505 Z" fill="#3c4244"/>
        </g>
        <g id="Graphic_16">
          <path d="M 265.16514 529.0148 C 256.54353 525.2603 248.52548 520.391 241.28926 514.5853 C 249.6209 495.6882 262.15166 478.29464 277.4725 464.4687 C 279.3777 466.05385 281.28286 467.639 283.19018 468.9084 C 273.5655 487.27495 267.4999 507.90967 265.16514 529.0148 Z" fill="#3c4244"/>
        </g>
        <g id="Graphic_15">
          <path d="M 304.76203 327.26982 C 310.7095 347.3096 312.51374 368.5908 309.54536 389.3351 C 307.0044 389.3351 304.78136 389.3351 302.24256 389.6508 C 297.94464 368.7734 288.9622 348.9527 276.52594 331.7675 C 285.48906 329.04397 294.96123 327.5018 304.76203 327.26982 Z" fill="#3d4244"/>
        </g>
        <g id="Graphic_14">
          <path d="M 268.46622 334.5997 C 280.84018 351.32527 289.83123 370.70348 294.30312 391.23725 C 292.08006 391.87087 289.857 392.8224 287.63394 393.7739 C 276.25015 375.87343 261.27725 360.29483 243.89443 348.3483 C 251.36906 342.72514 259.62983 338.0943 268.46622 334.5997 Z" fill="#3d4244"/>
        </g>
        <g id="Graphic_13">
          <path d="M 313.2159 327.3798 C 322.9007 327.9146 332.2268 329.7704 341.04172 332.73876 C 339.80454 353.6656 334.23508 374.18863 324.4708 392.50364 C 322.24774 391.55428 319.7068 390.92065 317.48373 390.28488 C 320.3404 369.4676 319.0431 347.88994 313.2159 327.3798 Z" fill="#3d4244"/>
        </g>
        <g id="Graphic_12">
          <path d="M 348.825 335.6893 C 357.59267 339.44167 365.7353 344.35603 373.0875 350.2219 C 364.79453 369.15335 352.51937 386.58343 337.17274 400.43084 C 335.26757 398.8457 333.3624 397.26056 331.45507 395.99116 C 341.14418 377.50217 347.2141 356.7128 348.825 335.6893 Z" fill="#8bb0e7"/>
        </g>
        <g id="Graphic_11">
          <path d="M 397.21426 377.4577 C 382.83203 392.6282 365.2967 404.5017 346.0624 412.4768 C 345.1109 410.57594 343.8415 408.35717 342.25206 406.45415 C 357.87147 392.28026 370.66427 374.7965 379.33313 355.61588 C 386.2214 362.0531 392.2505 369.39026 397.21426 377.4577 Z" fill="#8bb0e7"/>
        </g>
        <g id="Graphic_10">
          <path d="M 399.73437 483.1899 C 379.2457 478.19176 359.95126 469.06325 343.20636 456.2275 C 344.47576 454.32447 345.74516 452.1057 346.6988 449.88694 C 362.2581 454.64236 378.13525 457.179 394.3303 457.179 C 399.59047 457.179 404.84204 456.8611 409.99696 456.3628 C 407.7911 465.86076 404.3201 474.87113 399.73437 483.1899 Z" fill="#3c4244"/>
        </g>
        <g id="Graphic_9">
          <path d="M 410.6686 411.5981 C 391.98416 420.81254 371.25923 426.17366 350.50852 427.06073 C 350.19063 424.84197 349.557 422.3053 348.92124 420.08655 C 368.57223 412.12435 386.4104 400.05753 401.3382 384.85266 C 405.58457 393.19075 408.76773 402.1603 410.6686 411.5981 Z" fill="#3c4244"/>
        </g>
        <g id="Graphic_8">
          <path d="M 411.9728 419.88336 C 412.4668 424.01804 412.75034 428.2193 412.75034 432.48715 C 412.75034 437.8311 412.3444 443.0805 411.57544 448.20966 C 390.7238 450.7807 369.449 448.50177 349.55744 442.2772 C 349.55744 441.96146 349.87318 441.32784 349.87318 441.00995 C 350.19106 438.7912 350.50895 436.88816 350.50895 434.9873 C 371.8976 434.13243 392.76 429.14934 411.9728 419.88336 Z" fill="#3c4244"/>
        </g>
        <g id="Graphic_7">
          <path d="M 376.49255 511.91225 C 358.98944 500.40604 344.02943 485.16035 332.72726 467.64006 C 334.63244 466.3728 336.5376 464.7877 338.1249 462.88465 C 355.05667 475.7784 374.59597 485.2613 395.308 490.48496 C 390.0285 498.4579 383.68796 505.65976 376.49255 511.91225 Z" fill="#3c4244"/>
        </g>
        <g id="Graphic_6">
          <path d="M 217.1131 487.1061 C 231.43734 472.0967 248.85668 460.3392 267.94708 452.4221 C 268.8986 454.3251 270.17014 456.5439 271.75742 458.4469 C 256.23037 472.5392 243.48912 489.8962 234.8224 508.94366 C 228.00073 502.4957 222.01887 495.16713 217.1131 487.1061 Z" fill="#3c4244"/>
        </g>
        <g id="Graphic_5">
          <path d="M 307.55986 398.50247 C 289.63362 398.50247 274.4889 413.62357 274.4889 431.51974 C 274.4889 449.41806 289.63362 464.53916 307.55986 464.53916 C 325.4861 464.53916 340.633 449.41806 340.633 431.51974 C 340.633 413.62357 325.4861 398.50247 307.55986 398.50247 M 307.55986 406.54844 C 321.1087 406.54844 332.5741 417.9945 332.5741 431.51974 C 332.5741 445.0471 321.1087 456.4932 307.55986 456.4932 C 294.011 456.4932 282.5456 445.0471 282.5456 431.51974 C 282.5456 417.9945 294.011 406.54844 307.55986 406.54844" fill="#8bb0e7"/>
        </g>
        <g id="Graphic_4">
          <path d="M 307.9016 444.18345 C 301.03695 444.18345 295.22907 438.38416 295.22907 431.53026 C 295.22907 424.67637 301.03695 418.87923 307.9016 418.87923 C 314.76623 418.87923 320.5741 424.67637 320.5741 431.53026 C 320.5741 438.38416 314.76623 444.18345 307.9016 444.18345 Z" fill="#3c4244"/>
        </g>
      </g>
    </g>
  </g>
</svg>

<svg xmlns="http://www.w3.org/2000/svg" width="612.284" height="790.866" viewBox="0 0 612.284 790.866"><style>tspan{font-family:Helvetica Neue,Arial,sans-serif}</style><g fill="none"><path fill="#fff" d="M0 0h612.284v790.866H0z"/><text fill="#293131" transform="translate(192.642 115.797)"><tspan x=".322" y="51" font-size="52" font-weight="500">Webpack</tspan></text><text fill="#7e8e97" transform="translate(136.142 186.59)"><tspan x=".14" y="22" font-size="24" font-weight="300">FROM APPRENTICE TO MASTER</tspan></text><text fill="#000" transform="translate(180.307 685.815)"><tspan x=".12" y="29" font-size="32" font-weight="300">Juho Vepsäläinen</tspan></text><text fill="#283131" transform="translate(221.642 59.358)"><tspan x=".148" y="29" font-size="32" font-weight="700">SURVIVE</tspan> <tspan y="29" fill="#00c1cf" font-size="32" font-weight="700">JS</tspan></text><path fill="#2b3337" d="M307.296 306.142c-68.887 0-124.93 55.95-124.93 124.723s56.043 124.726 124.93 124.726 124.93-55.953 124.93-124.726-56.043-124.723-124.93-124.723m0 10.529c63.038 0 114.383 51.261 114.383 114.194 0 62.935-51.345 114.197-114.383 114.197-63.039 0-114.384-51.262-114.384-114.197 0-62.933 51.345-114.194 114.384-114.194"/><path fill="#2b3337" d="M203.889 453.188c18.624-9.143 39.263-14.464 59.93-15.349.318 2.22.952 4.756 1.587 6.975-19.584 7.934-37.373 19.945-52.27 35.081a104.377 104.377 0 0 1-9.247-26.707zM214.823 381.845c20.284 5.028 39.386 14.105 55.982 26.83-1.271 1.9-2.54 4.119-3.494 6.34-20.253-6.266-41.53-8.654-62.68-6.556a104.455 104.455 0 0 1 10.192-26.614zM202.594 444.896c-.48-4.072-.754-8.207-.754-12.408 0-5.383.41-10.669 1.19-15.832 20.761-2.518 41.937-.23 61.74 5.967 0 .315-.317.951-.317 1.267-.316 2.219-.634 4.122-.634 6.025-21.3.85-42.077 5.79-61.225 14.981z"/><path fill="#3d4244" d="M237.552 353.536c17.35 11.48 32.186 26.638 43.415 44.04-1.905 1.585-3.81 3.17-5.4 4.756-16.775-12.774-36.106-22.212-56.38-27.695a105.785 105.785 0 0 1 18.365-21.1z"/><path fill="#2b3337" d="M308.55 537.738c-5.896-19.978-7.678-41.184-4.72-61.855h2.222c1.905 0 3.493 0 5.082-.318 4.302 20.914 13.31 40.765 25.78 57.97a105.685 105.685 0 0 1-28.364 4.203zM345.044 530.801c-12.442-16.766-21.485-36.213-25.972-56.82 2.223-.634 4.446-1.585 6.67-2.537 11.484 18.06 26.629 33.748 44.21 45.735a105.19 105.19 0 0 1-24.908 13.622zM300.055 537.495a105.208 105.208 0 0 1-27.684-5.658c1.312-20.703 6.869-40.996 16.534-59.124 2.223.951 4.762 1.585 6.985 2.219-2.84 20.7-1.58 42.154 4.165 62.563zM265.165 529.015a105.403 105.403 0 0 1-23.876-14.43c8.332-18.897 20.863-36.29 36.184-50.116 1.905 1.585 3.81 3.17 5.717 4.44-9.625 18.366-15.69 39-18.025 60.106z"/><path fill="#3d4244" d="M304.762 327.27c5.947 20.04 7.752 41.32 4.783 62.065-2.54 0-4.764 0-7.302.316-4.298-20.878-13.28-40.698-25.717-57.884 8.963-2.723 18.435-4.265 28.236-4.497zM268.466 334.6c12.374 16.725 21.365 36.103 25.837 56.637-2.223.634-4.446 1.585-6.67 2.537-11.383-17.9-26.356-33.48-43.739-45.426a105.235 105.235 0 0 1 24.572-13.748zM313.216 327.38c9.685.535 19.01 2.39 27.826 5.359-1.237 20.927-6.807 41.45-16.571 59.765-2.223-.95-4.764-1.583-6.987-2.22 2.856-20.816 1.56-42.394-4.268-62.904z"/><path fill="#8bb0e7" d="M348.825 335.69a105.425 105.425 0 0 1 24.262 14.532c-8.292 18.931-20.568 36.361-35.914 50.209-1.905-1.585-3.81-3.17-5.718-4.44 9.69-18.489 15.76-39.278 17.37-60.302zM397.214 377.458c-14.382 15.17-31.917 27.044-51.152 35.019-.951-1.901-2.22-4.12-3.81-6.023 15.62-14.174 28.412-31.658 37.081-50.838a105.794 105.794 0 0 1 17.881 21.842z"/><path fill="#2b3337" d="M399.734 483.19c-20.488-4.998-39.783-14.127-56.528-26.962 1.27-1.904 2.54-4.122 3.493-6.341 15.56 4.755 31.436 7.292 47.631 7.292 5.26 0 10.512-.318 15.667-.816a104.498 104.498 0 0 1-10.263 26.827zM410.669 411.598c-18.685 9.215-39.41 14.576-60.16 15.463-.318-2.219-.952-4.756-1.588-6.974 19.651-7.963 37.49-20.03 52.417-35.234a104.271 104.271 0 0 1 9.33 26.745zM411.973 419.883c.494 4.135.777 8.336.777 12.604 0 5.344-.406 10.593-1.175 15.723-20.851 2.57-42.126.292-62.018-5.933 0-.316.316-.95.316-1.267.318-2.219.636-4.122.636-6.023 21.389-.855 42.251-5.838 61.464-15.104zM376.493 511.912c-17.504-11.506-32.464-26.752-43.766-44.272 1.905-1.267 3.81-2.852 5.398-4.755 16.932 12.893 36.471 22.376 57.183 27.6a105.751 105.751 0 0 1-18.815 21.427zM217.113 487.106c14.324-15.01 31.744-26.767 50.834-34.684.952 1.903 2.223 4.122 3.81 6.025-15.527 14.092-28.268 31.45-36.935 50.497-6.821-6.448-12.803-13.777-17.709-21.838z"/><path fill="#8bb0e7" d="M307.56 398.502c-17.926 0-33.071 15.122-33.071 33.018 0 17.898 15.145 33.02 33.07 33.02 17.927 0 33.074-15.122 33.074-33.02 0-17.896-15.147-33.018-33.073-33.018m0 8.046c13.549 0 25.014 11.447 25.014 24.972 0 13.527-11.465 24.973-25.014 24.973s-25.014-11.446-25.014-24.973c0-13.525 11.465-24.972 25.014-24.972"/><path fill="#2b3337" d="M307.902 444.183c-6.865 0-12.673-5.799-12.673-12.653s5.808-12.65 12.673-12.65c6.864 0 12.672 5.796 12.672 12.65s-5.808 12.653-12.672 12.653z"/></g></svg>
